X:1
T:Come Faithful People, 88.87
T:Come Faithful People, 88.87
T:Clarence Bicknell (1842-1918)
T:Public Domain Courtesy of the Cyber Hymnal™
C:Clarence Bicknell (1842-1918)
Z:Public Domain
Z:Courtesy of the Cyber Hymnal™
%%score ( 1 2 ) ( 3 4 )
L:1/8
Q:1/4=115
M:3/4
K:Bb
V:1 treble 
V:2 treble 
V:3 bass 
V:4 bass 
V:1
 D2 | (F2 =E2) [DF]2 | D4 [DG]2 | [DF]4 [^C=E]2 | D4 D2 | (B2 A2) [DG]2 | [Ec]4 [EG]2 | %7
 [FA]4 [FB]2 | [FA]4 [FA]2 | [GB]4 [GB]2 | [Ac]4 [Ac]2 | [Bd]4 [Ge]2 | !fermata![Fc]4 [Gc]2 | %13
 (d2 c2) [GB]2 | G4 [EA]2 | [D^F]6 | [DG]4 |] %17
V:2
 D2 | D4 x2 | D4 x2 | x6 | D4 D2 | D4 x2 | x6 | x6 | x6 | x6 | x6 | x6 | x6 | ^F4 x2 | G4 x2 | x6 | %16
 x4 |] %17
V:3
 [D,F,]2 | (A,2 G,2) [D,A,]2 | [D,F,]4 [G,,B,]2 | [A,,A,]4 [A,,A,]2 | [D,F,]4 [D,D]2 | %5
 (D2 C2) [G,B,]2 | [C,C]4 [C,C]2 | [F,C]4 [B,,D]2 | [F,C]4 [F,C]2 | [E,E]4 [E,E]2 | [C,E]4 [C,E]2 | %11
 [C,D]4 [E,B,]2 | !fermata![F,A,]4 [E,C]2 | [D,A,]4 [G,B,]2 | [E,B,]4 [C,C]2 | [D,A,]6 | %16
 [G,,B,]4 |] %17
V:4
 x2 | D,4 x2 | x6 | x6 | x6 | G,4 x2 | x6 | x6 | x6 | x6 | x6 | x6 | x6 | x6 | x6 | x6 | x4 |] %17

